Obsidian/actions/24s/help-info.svg

<svg height="24" viewBox="0 0 24 24" width="24" xmlns="http://www.w3.org/2000/svg"><path d="m8 1.0039062c-3.866 0-7 3.1341001-7 7 0 3.8659998 3.134 6.9999998 7 6.9999998s7-3.134 7-6.9999998c0-3.8658999-3.134-7-7-7zm0 2.75c.69036 0 1.25.5596401 1.25 1.25 0 .69036-.55964 1.25-1.25 1.25s-1.25-.55964-1.25-1.25c0-.6903599.55964-1.25 1.25-1.25zm-1 3.25h2v4.9999998h-2z" fill="#bebebe" transform="translate(4 4)"/></svg>

<svg xmlns="http://www.w3.org/2000/svg" width="24" height="24" viewBox="0 0 24 24">
 <defs>
  <style id="current-color-scheme" type="text/css">
   .ColorScheme-Text { color:#bebebe; } .ColorScheme-Highlight { color:#4285f4; }
  </style>
 </defs>
 <path style="fill:currentColor" class="ColorScheme-Text" d="M 8 1.0039062 C 4.134 1.0039062 1 4.1380063 1 8.0039062 C 1 11.869906 4.134 15.003906 8 15.003906 C 11.866 15.003906 15 11.869906 15 8.0039062 C 15 4.1380063 11.866 1.0039062 8 1.0039062 z M 8 3.7539062 C 8.69036 3.7539062 9.25 4.3135463 9.25 5.0039062 C 9.25 5.6942662 8.69036 6.2539062 8 6.2539062 C 7.30964 6.2539062 6.75 5.6942662 6.75 5.0039062 C 6.75 4.3135463 7.30964 3.7539062 8 3.7539062 z M 7 7.0039062 L 9 7.0039062 L 9 12.003906 L 7 12.003906 L 7 7.0039062 z" transform="translate(4 4)"/>
</svg>
